assets/icons/checkbox.svg

<svg width="20" height="20" viewBox="0 0 20 20" fill="none" xmlns="http://www.w3.org/2000/svg">
<g clip-path="url(#clip0_57_312)">
<path d="M17.5 1.25C17.8315 1.25 18.1495 1.3817 18.3839 1.61612C18.6183 1.85054 18.75 2.16848 18.75 2.5V17.5C18.75 17.8315 18.6183 18.1495 18.3839 18.3839C18.1495 18.6183 17.8315 18.75 17.5 18.75H2.5C2.16848 18.75 1.85054 18.6183 1.61612 18.3839C1.3817 18.1495 1.25 17.8315 1.25 17.5V2.5C1.25 2.16848 1.3817 1.85054 1.61612 1.61612C1.85054 1.3817 2.16848 1.25 2.5 1.25H17.5ZM2.5 0C1.83696 0 1.20107 0.263392 0.732233 0.732233C0.263392 1.20107 0 1.83696 0 2.5L0 17.5C0 18.163 0.263392 18.7989 0.732233 19.2678C1.20107 19.7366 1.83696 20 2.5 20H17.5C18.163 20 18.7989 19.7366 19.2678 19.2678C19.7366 18.7989 20 18.163 20 17.5V2.5C20 1.83696 19.7366 1.20107 19.2678 0.732233C18.7989 0.263392 18.163 0 17.5 0L2.5 0Z" fill="#B791F5"/>
<path d="M13.7123 6.2125C13.8873 6.03909 14.1234 5.94149 14.3697 5.94081C14.6161 5.94014 14.8528 6.03643 15.0286 6.20887C15.2045 6.38131 15.3055 6.61605 15.3097 6.86233C15.3139 7.10862 15.221 7.34666 15.0511 7.525L10.0611 13.7625C9.97532 13.8549 9.87181 13.929 9.75675 13.9805C9.64168 14.0319 9.51742 14.0596 9.3914 14.062C9.26537 14.0643 9.14017 14.0412 9.02328 13.994C8.90639 13.9469 8.8002 13.8766 8.71108 13.7875L5.40483 10.48C5.31272 10.3942 5.23884 10.2907 5.1876 10.1757C5.13636 10.0607 5.10881 9.93653 5.10659 9.81065C5.10437 9.68477 5.12753 9.55974 5.17468 9.443C5.22183 9.32627 5.29201 9.22023 5.38103 9.1312C5.47006 9.04218 5.5761 8.972 5.69283 8.92485C5.80957 8.8777 5.93461 8.85454 6.06048 8.85676C6.18636 8.85898 6.3105 8.88653 6.4255 8.93777C6.5405 8.98901 6.644 9.06289 6.72983 9.155L9.34733 11.7712L13.6886 6.24C13.6963 6.23031 13.7047 6.22113 13.7136 6.2125H13.7123Z" fill="#B791F5"/>
</g>
<defs>
<clipPath id="clip0_57_312">
<rect width="20" height="20" fill="white"/>
</clipPath>
</defs>
</svg>

<svg width="20" height="20" viewBox="0 0 20 20" fill="none" xmlns="http://www.w3.org/2000/svg"><g clip-path="url(#checkbox_svg__clip0_57_312)" fill="#B791F5"><path d="M17.5 1.25a1.25 1.25 0 011.25 1.25v15a1.25 1.25 0 01-1.25 1.25h-15a1.25 1.25 0 01-1.25-1.25v-15A1.25 1.25 0 012.5 1.25h15zM2.5 0A2.5 2.5 0 000 2.5v15A2.5 2.5 0 002.5 20h15a2.5 2.5 0 002.5-2.5v-15A2.5 2.5 0 0017.5 0h-15z"/><path d="M13.712 6.213a.938.938 0 011.34 1.312l-4.99 6.237a.938.938 0 01-1.35.025L5.404 10.48A.937.937 0 116.73 9.155l2.617 2.616L13.69 6.24a.288.288 0 01.025-.027h-.002z"/></g><defs><clipPath id="checkbox_svg__clip0_57_312"><path fill="#fff" d="M0 0h20v20H0z"/></clipPath></defs></svg>
